X: 15920
T: Grande Nuit In Port Du Peche
R: reel
M: 4/4
K: Eminor
|:E2BE GBB2|BcBE GBB2|BcBE BA FG|ABB2AGFG:|
E2GE GAA2|EBAF GFED|E2GE GAA2|EBAFG2F/E/D|
E2GE GAA2|EBAF GB FG|E2GE GAA2|BAGFE2 dc|
|:BEEDE2 dc|ABB2 ABB2|BdcBA2A2|1 BAGFE2 dc:|2 [M:2/4] BAGF||
[M:4/4] E2GE GAA2|EBAF GFED|E2GE GAA2|EBAFG2F/E/D|
E2GE GAA2|EBAF GB FG|E2GE GAA2|BAGFE4||

